!!!!SEGMENT: pl-wtm--r-90-n--007_noskowski-zygmunt--piesni-op-63-raz-gasiorek-nieboraczek.krn
!!!cenid: 18xx:2126
!!!COM: Noskowski, Zygmunt
!!!COM-rismID:
!!!CDT: 1846/05/02-1909/07/23
!!!CNT: Polish
!!!GTL: Pieśni op. 63
!!!OTL: Raz gąsiorek nieboraczek
!!!PDT: 1899
!!!AGN: Secular; Song
!!!SMS-siglum: PL-Wtm
!!!SMS-shelfmark: R 90/N
!!!SMS-shelfwork: 007 G
!!!SMS-variant:
!!!SMS-altvar:
!!!NIFC-rismSourceID: 1001100015
!!!NIFC-islandoraID:
!!!URL-pdf-islandora:
!!!URL-scan:
!!!ONB-nifc: UWAGA: w zbiorze 10 krótkich pieśni
!!!AIN: 1 piano
!!!key:
**kern	**kern	**text
*part1	*part1	*part1
*staff2	*staff1	*staff1
*Ipiano	*Iempty	*
*I"[Piano]	*	*
*clefF4	*clefG2	*
*k[b-e-]	*k[b-e-]	*
*B-:	*B-:	*
*M2/4	*M2/4	*
=1	=1	=1
!	!LO:TX:a:i:t=Molto moderato, scherzando.	!
8BB-/	8.d 8.B-/	Raz
8r	.	.
.	16f/	gą-
8D\L	8f#X 8B-/	-sio-
8D\J	8f# 8B-/	-rek
=2	=2	=2
8E-\L	8g 8B-/	nie-
8C\J	8b- 8e-/	-bo-
8F\L	8a 8e-/	-ra-
8FF\J	8a 8e-/	-czek
=3	=3	=3
8BB-/	8.d 8.B-/	Wziął
8r	.	.
.	16f 16d/	na
8AA/L	8f#X 8d 8c/	sie-
8AA/J	8f# 8d 8c/	-bie
=4	=4	=4
8GG/L	8g 8d 8B-/	ku-
8EEn/J	8b- 8g 8d/	-sy
8AA/L	8a 8g 8c#X/	fra-
8AA/J	8a 8en 8c#/	-czek
!!LO:LB:g=original
=5	=5	=5
8D/L	8.f 8.d/	Wziął
8C/J	.	.
.	16a 16e-X/	pod
8BB-/L	8b- 8d/	pa-
16AA/L	8b- 8d/	-chę
16GG/JJ	.	.
=6	=6	=6
8AA/	8cc 8f 8c/	las-
8r	16b-\LL	-kę
.	16cc\JJ	.
8FL 8BB-\	8dd 8d/	cien-
8FJ 8D\	8a 8d/	-ką
=7	=7	=7
8FL 8D-X\	8b- 8f/	I
8FJ 8C\	8a 8f/	tak
8FL 8AA\	8cc 8c/	sta-
8CJ 8GG\	8en 8B-/	-nął
=8	=8	=8
8C 8FF/	8g 8A/	przed
8r	16f/L	pa-
.	16en/J	.
8r	8f/	-nien-
8F\	8f 8e-X/	-ką
=9	=9	=9
8B-\L	8f#X 8d/	Gę-
!LO:TX:a:t=P:problem=nuta i belka dopisana ołówkiem	!	!
8B-\J	8f# 8d/	-gę-
8BnL 8G\	4g 4d/	-gę-
8BJ 8G\	.	.
=10	=10	=10
8BnL 8En\	2g#X 2d/	-gę
(>16c\L	.	.
16B\JJ)	.	.
8B\L	.	.
8BJ 8E\	.	.
!!LO:LB:g=original
=11	=11	=11
8AL 8F\	8a 8c/	gę-
8AA\J	8a 8f 8c/	-ge
8C\L	4gn 4e-/	gę
8C#X\J	.	.
=12	=12	=12
!	!LO:TX:a:t=P:problem=2A dopisane ołówkiem	!
8.A\L	2f#X 2d 2A/	gę
16AA\Jk	.	.
8D\L	.	.
8Cn\J	.	.
=13	=13	=13
8BB-\L	8fn 8d/	Gę-
8B-\J	8f 8d/	-gę-
8A\L	4f#X 4d 4c/	-gę
8A\J	.	.
=14	=14	=14
8G\L	2g 2d 2Bn/	Gę
(>16G\L	.	.
16F\JJ)	.	.
8D\L	.	.
8G\J	.	.
=15	=15	=15
8G-X\L	8a 8en 8c#X/	gę-
16F\L	8a 8f 8d-X/	-gę
16D-X\JJ	.	.
8C\L	4an 4f 4e/	gę
8F\J	.	.
=16	=16	=16
8BB-/L	2b- 2f 2dn/	gę
8FF/J	.	.
8BB-/	.	.
8r	.	.
==	==	==
*-	*-	*-
!!!system-decoration: {(s1,s2)}
!!!RDF**kern: > = above
!!!RDF**kern: < = below
!!!EED: Antoni Szymański
!!!EEV: 2021-06-05
!!!ENC: Mateusz Solarz
!!!END: 2021-05-11
